!!!COM: Chopin, Frederic
!!!CDT: 1810///-1849///
!!!OTL: Etude in A Minor, Op. 10, No. 2
!!!OPS: Op. 10
!!!ONM: No. 2
!!!OMD: Allegro
!!!ODT: 1830/11//
!!!PPP: Leipzig, Paris and London
!!!ODE: Franz Liszt
!!!PDT: 1833///
!!!AIN: piano
**kern	**kern	**dynam
*staff2	*staff1	*staff1/2
*Ipiano	*Ipiano	*Ipiano
*clefF4	*clefG2	*clefG2
*k[]	*k[]	*k[]
*met(C)	*met(C)	*met(C)
*M4/4	*M4/4	*M4/4
*MM144	*MM144	*MM144
=1-	=1-	=1-
*	*^	*
8AA'/	16a/LL	16c\ 16e\	p
*	*v	*v	*
.	16a#/	.
8r	16b/	.
.	16cc/JJ	.
*	*^	*
8E'\ 8A'\ 8cn'\	16cc#/LL	16e\ 16an\	.
*	*v	*v	*
.	16dd/	<
8r	16dd#/	.
.	16ee/JJ	.
*	*^	*
8AA'/	16ff/LL	16a\ 16ddn\	.
*	*v	*v	*
.	16ff#/	.
8r	16gg/	.
.	16gg#/JJ	.
*	*^	*
8F'\ 8A'\ 8d'\	16aa/LL	16dd\ 16ffn\	.
*	*v	*v	*
.	16aa#/	.
8r	16bb/	.
.	16cccn/JJ	.
=2	=2	=2
*	*^	*
8AAA'/ 8AA'/	16ccc#/LL	16ee\ 16aa\	<
*	*v	*v	*
.	16ddd/	.
8r	16ddd#/	.
.	16eee/JJ	.
*	*^	*
8E'\ 8A'\ 8cn'\	16fff/LL	16aa\ 16cccn\	>
*	*v	*v	*
.	16eee/	.
8r	16ddd#/	.
.	16dddn/JJ	.
*	*^	*
8A'\ 8cn'\ 8e'\	16ccc#/LL	16ee\ 16aa\	.
*	*v	*v	*
.	16cccn/	.
8r	16bb/	.
.	16bb-/JJ	.
*	*^	*
4r	16aa/LL	16ccn\ 16ee\	.
*	*v	*v	*
.	16gg#/	.
.	16bbn/	.
.	16aa/JJ	.
=3	=3	=3
*	*^	*
8EE'/	16gg#/LL	16b\ 16ee\	.
*	*v	*v	*
.	16ggn/	.
8r	16ff#/	.
.	16ffn/JJ	.
*	*^	*
8E'\ 8B'\ 8d'\	16ee/LL	16g#\ 16b\	.
*	*v	*v	*
.	16dd#/	.
8r	16ff/	.
.	16ee/JJ	.
*	*^	*
8AA'/	16dd#/LL	16a\ 16cc\	.
*	*v	*v	*
.	16ddn/	.
8r	16cc#/	.
.	16ccn/JJ	.
*	*^	*
8E'\ 8A'\ 8c'\	16b/LL	16e\ 16a\	.
*	*v	*v	*
.	16cc/	.
8r	16dd/	.
.	16cc/JJ	.
=4	=4	=4
*	*^	*
8E'\ 8B'\	16b/LL	16e\ 16g#\	.
*	*v	*v	*
.	16cc/	.
8r	16b/	.
.	16cc/JJ	.
*	*^	*
(4F^\ [4B^\	16b/LL	16d#\ 16a\	.
*	*v	*v	*
.	16cc/	.
.	16b/	.
.	16cc/JJ	.
*	*^	*
8E\) 8B\]	16b/LL	16e\ 16g#\	.
*	*v	*v	*
.	16ee/	.
8r	16dd#/	.
.	16ddn/JJ	.
*	*^	*
4r	16cc#/LL	16dn\ 16g#\	>
*	*v	*v	*
.	16ccn/	.
.	16b/	.
.	16b-/JJ	.
=5	=5	=5
*	*^	*
8AA'/	16a/LL	16c\ 16e\	p
*	*v	*v	*
.	16a#/	.
8r	16b/	.
.	16cc/JJ	.
*	*^	*
8E'\ 8A'\ 8cn'\	16cc#/LL	16e\ 16an\	.
*	*v	*v	*
.	16dd/	.
8r	16dd#/	.
.	16ee/JJ	.
*	*^	*
8AA'/	16ff/LL	16a\ 16ddn\	.
*	*v	*v	*
.	16ff#/	.
8r	16gg/	.
.	16gg#/JJ	.
*	*^	*
8F'\ 8A'\ 8d'\	16aa/LL	16dd\ 16ffn\	.
*	*v	*v	*
.	16aa#/	.
8r	16bb/	.
.	16cccn/JJ	.
=6	=6	=6
*	*^	*
8AAA'/ 8AA'/	16ccc#/LL	16ee\ 16aa\	<
*	*v	*v	*
.	16ddd/	.
8r	16ddd#/	.
.	16eee/JJ	.
*	*^	*
8E'\ 8A'\ 8cn'\	16fff/LL	16aa\ 16cccn\	>
*	*v	*v	*
.	16eee/	.
8r	16ddd#/	.
.	16dddn/JJ	.
*	*^	*
8A'\ 8cn'\ 8e'\	16ccc#/LL	16ee\ 16aa\	.
*	*v	*v	*
.	16cccn/	.
8r	16bb/	.
.	16bb-/JJ	.
*	*^	*
4r	16aa/LL	16ccn\ 16ee\	.
*	*v	*v	*
.	16gg#/	.
.	16bbn/	.
.	16aa/JJ	.
=7	=7	=7
*	*^	*
8BB'/	16ggn/LL	16b\ 16ee\	.
*	*v	*v	*
.	16gg#/	.
8r	16aa/	.
.	16aa#/JJ	.
*	*^	*
8B'\ 8e'\ 8g'\	16bb/LL	16ee\ 16ggn\	.
*	*v	*v	*
.	16ccc/	.
8r	16bb/	.
.	16aa#/JJ	.
*	*^	*
8BB'/	16aan/LL	16dd#\ 16ff#\	.
*	*v	*v	*
.	16gg#/	.
8r	16ggn/	.
.	16ff#/JJ	.
*	*^	*
8B'\ 8f#'\ 8b'\	16ee#/LL	16a\ 16dd#\	.
*	*v	*v	*
.	16ff#/	.
8r	16ggn/	.
.	16ff#/JJ	.
=8	=8	=8
*	*^	*
4E\ 4e\	16een/LL	16g#\ 16b\	>
*	*v	*v	*
.	16ffn/	.
.	16dd#/	.
.	16ee/JJ	.
*	*^	*
4EE/ 4E/	16ddn/LL	16fn\ 16a\	.
*	*v	*v	*
.	16ee/	.
.	16cc#/	.
.	16dd/JJ	.
*	*^	*
4r	16ccn/LL	16e\ 16a\	.
*	*v	*v	*
.	16dd/	.
.	16b/	.
.	16cc/JJ	.
*	*^	*
4EE/ 4E/	16b/LL	16d\ 16g#\	.
*	*v	*v	*
.	16cc/	.
.	16a#/	.
.	16b/JJ	.
=9	=9	=9
*	*^	*
8AA'/	16an/LL	16c\ 16e\	p
*	*v	*v	*
.	16a#/	.
8r	16b/	.
.	16cc/JJ	.
*	*^	*
8E'\ 8A'\ 8cn'\	16cc#/LL	16e\ 16an\	.
*	*v	*v	*
.	16dd/	.
8r	16dd#/	.
.	16ee/JJ	.
*	*^	*
8AA'/	16ff/LL	16a\ 16ddn\	.
*	*v	*v	*
.	16ff#/	.
8r	16gg/	.
.	16gg#/JJ	.
*	*^	*
8F'\ 8A'\ 8d'\	16aa/LL	16dd\ 16ffn\	.
*	*v	*v	*
.	16aa#/	.
8r	16bb/	.
.	16cccn/JJ	.
=10	=10	=10
*	*^	*
8AAA'/ 8AA'/	16ccc#/LL	16ee\ 16aa\	.
*	*v	*v	*
.	16ddd/	.
8r	16ddd#/	.
.	16eee/JJ	.
*	*^	*
8E'\ 8A'\ 8cn'\	16fff/LL	16aa\ 16cccn\	.
*	*v	*v	*
.	16eee/	.
8r	16ddd#/	.
.	16dddn/JJ	.
*	*^	*
8A'\ 8cn'\ 8e'\	16ccc#/LL	16ee\ 16aa\	.
*	*v	*v	*
.	16cccn/	.
8r	16bb/	.
.	16bb-/JJ	.
*	*^	*
4r	16aa/LL	16ccn\ 16ee\	.
*	*v	*v	*
.	16gg#/	.
.	16bbn/	.
.	16aa/JJ	.
=11	=11	=11
*	*^	*
8EE'/	16gg#/LL	16b\ 16ee\	.
*	*v	*v	*
.	16ggn/	.
8r	16ff#/	.
.	16ffn/JJ	.
*	*^	*
8E'\ 8B'\ 8d'\	16ee/LL	16g#\ 16b\	.
*	*v	*v	*
.	16dd#/	.
8r	16ff/	.
.	16ee/JJ	.
*	*^	*
8AA'/	16dd#/LL	16a\ 16cc\	.
*	*v	*v	*
.	16ddn/	.
8r	16cc#/	.
.	16ccn/JJ	.
*	*^	*
8E'\ 8A'\ 8c'\	16b/LL	16e\ 16a\	.
*	*v	*v	*
.	16cc/	.
8r	16dd/	.
.	16cc/JJ	.
=12	=12	=12
*	*^	*
8E'\ 8B'\	16b/LL	16e\ 16g#\	.
*	*v	*v	*
.	16cc/	.
8r	16b/	.
.	16cc/JJ	.
*	*^	*
(4F^\ [4B^\	16b/LL	16d#\ 16a\	.
*	*v	*v	*
.	16cc/	.
.	16b/	.
.	16cc/JJ	.
*	*^	*
8E\) 8B\]	16b/LL	16e\ 16g#\	.
*	*v	*v	*
.	16ee/	.
8r	16dd#/	.
.	16ddn/JJ	.
*	*^	*
4r	16cc#/LL	16dn\ 16g#\	>
*	*v	*v	*
.	16ccn/	.
.	16b/	.
.	16b-/JJ	.
=13	=13	=13
*	*^	*
8AA'/	16a/LL	16c\ 16e\	p
*	*v	*v	*
.	16a#/	.
8r	16bn/	.
.	16cc/JJ	.
*	*^	*
8E'\ 8A'\ 8cn'\	16cc#/LL	16e\ 16an\	.
*	*v	*v	*
.	16dd/	.
8r	16dd#/	.
.	16ee/JJ	.
*	*^	*
8AA'/	16ff/LL	16a\ 16ddn\	.
*	*v	*v	*
.	16ff#/	.
8r	16gg/	.
.	16gg#/JJ	.
*	*^	*
8F'\ 8A'\ 8d'\	16aa/LL	16dd\ 16ffn\	.
*	*v	*v	*
.	16aa#/	.
8r	16bb/	.
.	16cccn/JJ	.
=14	=14	=14
*	*^	*
8AAA'/ 8AA'/	16ccc#/LL	16ee\ 16aa\	.
*	*v	*v	*
.	16ddd/	.
8r	16ddd#/	.
.	16eee/JJ	.
*	*^	*
8E'\ 8A'\ 8cn'\	16fff/LL	16aa\ 16cccn\	.
*	*v	*v	*
.	16eee/	.
8r	16ddd#/	.
.	16dddn/JJ	.
*	*^	*
8A'\ 8cn'\ 8e'\	16ccc#/LL	16ee\ 16aa\	.
*	*v	*v	*
.	16cccn/	.
8r	16bb/	.
.	16bb-/JJ	.
*	*^	*
4r	16aa/LL	16ccn\ 16ee\	.
*	*v	*v	*
.	16gg#/	.
.	16bbn/	.
.	16aa/JJ	.
=15	=15	=15
*	*^	*
8DD'/ 8D'/	16bb-/LL	16dd\ 16ff\	<
*	*v	*v	*
.	16bbn/	.
8r	16ccc/	.
.	16ccc#/JJ	.
*	*^	*
8D'\ 8F'\ 8B-'\ 8d'\	16dd/LL	16f\ 16b-\	.
*	*v	*v	*
.	16dd#/	.
8r	16ee/	.
.	16ff/JJ	.
*	*^	*
8EE'/ 8E'/	16ee/LL	16g#\ 16ddn\	.
*	*v	*v	*
.	16ff/	.
8r	16ff#/	.
.	16ggn/JJ	.
*	*^	*
8E'\ 8Bn'\ 8d'\	16gg#/LL	16dd\	.
*	*v	*v	*
.	16aa/	.
8r	16aa#/	.
.	16bbn/JJ	.
=16	=16	=16
*	*^	*
8FF'/ 8F'/	16aan/LL	16cc\ 16ff\	f
*	*v	*v	*
.	16gg#/	.
8r	16ggn/	.
.	16ff#/JJ	.
*	*^	*
8A'\ 8c'\ 8f'\	16ffn/LL	16a\ 16cc\	.
*	*v	*v	*
.	16ee/	.
8r	16ee-/	.
.	16dd/JJ	.
*	*^	*
8CCn'/ 8Cn'/	16ccc#/LL	16een\ 16aa\	.
*	*v	*v	*
.	16cccn/	.
8r	16bb/	.
.	16bb-/JJ	.
*	*^	*
8E'\ 8A'\ 8e'\	16aa/LL	16ccn\ 16ee\	.
*	*v	*v	*
.	16gg#/	.
8r	16ggn/	.
.	16ff#/JJ	.
=17	=17	=17
*	*^	*
8DD/	16ffn/LL	16b-\ 16dd\	.
*	*v	*v	*
.	16ee/	.
8r	16ee-/	.
.	16dd/JJ	.
*	*^	*
4D\ 4F\ 4B-\ (4d\	16cc#/LL	16f\ 16b-\	.
*	*v	*v	*
.	16dd/	>
.	16ff/	.
.	16dd/JJ	.
*	*^	*
4E\ 4A\ 4c\)	16bn/LL	16en\ 16a\	.
*	*v	*v	*
.	16ccn/	.
.	16een/	.
.	16cc/JJ	.
*	*^	*
(4E^\	16a#/LL	16d\ 16g#\	.
*	*v	*v	*
.	16b/	.
.	16ee/	.
.	16b/JJ	.
=18	=18	=18
*	*^	*
4AA\ 4A\)	16an/LL	16c\ 16e\	<
*	*v	*v	*
.	16a#/	.
.	16b/	.
.	16cc/JJ	.
*	*^	*
(4EE/ 4E/	16cc#/LL	16e\ 16g#\	.
*	*v	*v	*
.	16dd/	.
.	16dd#/	.
.	16ee/JJ	.
*	*^	*
4AAA/) 4AA/	16aan/LL	16an\ 16ccn\	>
*	*v	*v	*
.	16gg#/	.
.	16ggn/	.
.	16ff#/JJ	.
4r	16ffn/LL	.
.	16ee/	.
.	16ee-/	.
.	16ddn/JJ	.
=19	=19	=19
*	*^	*
8CC'/ 8C'/	16dd-/LL	16e\ 16b-\	p
*	*v	*v	*
.	16cc/	.
8r	16bn/	.
.	16cc/JJ	.
*	*^	*
8Cn'\ 8G'\ 8cn'\	16cc#/LL	16e\ 16b-\	.
*	*v	*v	*
.	16ddn/	.
8r	16dd#/	.
.	16ee/JJ	.
*	*^	*
8FF'/	16ff/LL	16a\	.
*	*v	*v	*
.	16ff#/	.
8r	16gg/	.
.	16gg#/JJ	.
*	*^	*
8C'\ 8A'\ 8c'\	16aa/LL	16ccn\	<
*	*v	*v	*
.	16ee/	.
8r	16ffn/	.
.	16ddn/JJ	.
=20	=20	=20
*	*^	*
8CC/	16dd-/LL	16b-\	.
*	*v	*v	*
.	16cc/	.
8r	16bn/	.
.	16cc/JJ	.
*	*^	*
8Cn'\ 8G'\ 8cn'\	16cc#/LL	16e\ 16b-\	.
*	*v	*v	*
.	16ddn/	.
8r	16dd#/	.
.	16ee/JJ	.
*	*^	*
8DD-'/	16ff/LL	16f\ 16a-\	.
*	*v	*v	*
.	16ff#/	.
8r	16gg/	.
.	16aa-/JJ	.
*	*^	*
8D-'\ 8A-'\ 8Bn'\	16gg/LL	16bn\	.
*	*v	*v	*
.	16ff#/	.
8r	16ffn/	.
.	16ee/JJ	.
=21	=21	=21
*	*^	*
8DDn'/	16ee-/LL	16cc\	.
*	*v	*v	*
.	16dd/	.
8r	16cc#/	.
.	16dd/JJ	.
*	*^	*
8Dn'\ 8An'\ 8c'\	16ee-/LL	16f#\ 16ccn\	.
*	*v	*v	*
.	16een/	.
8r	16ff/	.
.	16ff#/JJ	.
*	*^	*
8GG'/	16gg/LL	16b-\	.
*	*v	*v	*
.	16gg#/	.
8r	16aa/	.
.	16bb/JJ	.
*	*^	*
8D'\ 8G'\ 8B'\	16aa/LL	16dd\	.
*	*v	*v	*
.	16ff#/	.
8r	16ggn/	.
.	16ee-/JJ	.
=22	=22	=22
*	*^	*
8DD'/	16dd/LL	16cc\	.
*	*v	*v	*
.	16ee/	.
8r	16cc#/	.
.	16dd/JJ	.
*	*^	*
8D'\ 8A'\ 8c'\	16ee/LL	16f#\ 16ccn\	.
*	*v	*v	*
.	16een/	.
8r	16ffn/	.
.	16ff#/JJ	.
*	*^	*
8EE-'/	16gg/LL	16g\ 16b-\	.
*	*v	*v	*
.	16gg#/	.
8r	16aa/	.
.	16bb/JJ	.
*	*^	*
8E-'\ 8B-'\ 8c'\	16aa/LL	16cc#\	.
*	*v	*v	*
.	16gg#/	.
8r	16ggn/	.
.	16ff#/JJ	.
=23	=23	=23
*	*^	*
8EEn'/	16ffn/LL	16dd\	.
*	*v	*v	*
.	16ee/	.
8r	16dd#/	.
.	16ee/JJ	.
*	*^	*
8En'\ 8Bn'\ 8d'\	16ff/LL	16g#\ 16ddn\	.
*	*v	*v	*
.	16ff#/	.
8r	16gg/	.
.	16gg#/JJ	.
*	*^	*
8AA'/	16aa/LL	16cc\	.
*	*v	*v	*
.	16aa#/	.
8r	16bb/	.
.	16ccc/JJ	.
*	*^	*
8E'\ 8A'\ 8c'\ 8e'\	16bb/LL	16ee\	.
*	*v	*v	*
.	16bb-/	.
8r	16aan/	.
.	16gg#/JJ	.
=24	=24	=24
*	*^	*
8EE'/	16ggn/LL	16dd\	.
*	*v	*v	*
.	16ff#/	.
8r	16ffn/	.
.	16ee/JJ	.
*	*^	*
8E'\ 8B'\ 8d'\	16ff/LL	16g#\ 16dd\	.
*	*v	*v	*
.	16ff#/	.
8r	16gg/	.
.	16gg#/JJ	.
*	*^	*
4AA\ (4A\	16aa/LL	16cc\	.
*	*v	*v	*
.	16aa#/	.
.	16bb/	.
.	16ccc/JJ	.
*	*^	*
4GGn/ 4Gn/	16ccc#/LL	16ee\ 16aan\	.
*	*v	*v	*
.	16ddd/	.
.	16ddd#/	.
.	16eee/JJ	.
=25	=25	=25
*	*^	*
4FF/ 4F/)	16fffn/LL	16aa\	f
*	*v	*v	*
.	16eee/	.
.	16eee-/	.
.	16ddd/JJ	.
*	*^	*
2BB^\ 2B^\	16ccc#/LL	16ff\ 16aa\	.
*	*v	*v	*
.	16cccn/	.
.	16bb/	.
.	16bb-/JJ	.
*	*^	*
.	16aa/LL	16dd\ 16ff\	.
*	*v	*v	*
.	16gg#/	.
.	16ggn/	.
.	16ff#/JJ	.
*	*^	*
4E\ 4e\	16ffn/LL	16g#\ 16dd\	>
*	*v	*v	*
.	16een/	.
.	16dd#/	.
.	16ee/JJ	.
=26	=26	=26
*	*^	*
4EE-/ 4E-/	(16eee-/LL	16ggn\	.
*	*v	*v	*
.	16ddd/)	.
.	16ccc#/	.
.	16cccn/JJ	.
*	*^	*
2AA^\ 2A^\	16bbn/LL	16ee-\ 16gg\	.
*	*v	*v	*
.	16bb-/	.
.	16aa/	.
.	16gg#/JJ	.
*	*^	*
.	16ggn/LL	16cc\ 16ee-\	.
*	*v	*v	*
.	16ff#/	.
.	16ffn/	.
.	16een/JJ	.
*	*^	*
4D\ 4d\	16ee-/LL	16f#\ 16cc\	.
*	*v	*v	*
.	16dd/	.
.	16cc#/	.
.	16dd/JJ	.
=27	=27	=27
*	*^	*
4GG/ 4G/	16ddd/LL	16gg\ 16bb-\	.
*	*v	*v	*
.	16ccc#/	.
.	16cccn/	.
.	16bbn/JJ	.
*	*^	*
4E-\ (4e-\	16bb-/LL	16cc#\ 16gg\	.
*	*v	*v	*
.	16aa/	.
.	16aa-/	.
.	16gg/JJ	.
*	*^	*
8D\ 8d\)	16ff#/LL	16an\ 16dd\	.
*	*v	*v	*
.	16gg/	.
8r	16gg#/	<
.	16aan/JJ	.
*	*^	*
4AA\ (4A\	16bb-/LL	16ccn\ 16ffn\	.
*	*v	*v	*
.	16bbn/	.
.	16ccc/	.
.	16bb/JJ	.
=28	=28	=28
*	*^	*
8FF/ 8F/)	16ddd/LL	16ff\ 16aa\	.
*	*v	*v	*
.	16ccc/	.
8r	16bb-/	.
.	16aa/JJ	.
*	*^	*
4D-\ (4d-\	16aa-/LL	16bn\ 16ff\	.
*	*v	*v	*
.	16gg/	.
.	16ff#/	.
.	16ffn/JJ	.
*	*^	*
8C\ 8c\)	16een/LL	16g\ 16cc\	.
*	*v	*v	*
.	16ff/	.
8r	16ff#/	.
.	16gg/JJ	.
*	*^	*
(4GGn/ 4Gn/	16gg#/LL	16b-\ 16ee-\	.
*	*v	*v	*
.	16aan/	.
.	16bb-/	.
.	16aa/JJ	.
=29	=29	=29
*	*^	*
8EE-/) 8E-/	16ccc/LL	16ee-\ 16ggn\	.
*	*v	*v	*
.	16bb-/	.
8r	16aa/	.
.	16aa-/JJ	.
*	*^	*
2E-\ 2e-\	16gg/LL	16b-\ 16ee-\	f
*	*v	*v	*
.	16ff#/	>
.	16ffn/	.
.	16een/JJ	.
*	*^	*
.	16ee-/LL	16g\ 16b-\	.
*	*v	*v	*
.	16dd/	.
.	16dd-/	.
.	16cc/JJ	.
*	*^	*
(4EE-/ 4E-/	16b-/LL	16c#\ 16g\	.
*	*v	*v	*
.	16a/	.
.	16g#/	.
.	16gn/JJ	.
=30	=30	=30
*	*^	*
8DD/) 8D/	16f#/LL	16A\ 16d\	.
*	*v	*v	*
.	16g/	p
8r	16g#/	.
.	16a/JJ	.
*	*^	*
(4EE-^/ 4AA^/	16b-/LL	16c#\ 16gn\	.
*	*v	*v	*
.	16a/	.
.	16g#/	.
.	16gn/JJ	.
*	*^	*
8DD/) 8D/	16f#/LL	16A\ 16d\	.
*	*v	*v	*
.	16g/	.
8r	16g#/	.
.	16a/JJ	.
*	*^	*
(4EE-^/ 4AA^/	16b-/LL	16c#\ 16gn\	.
*	*v	*v	*
.	16a/	.
.	16g#/	.
.	16gn/JJ	.
=31	=31	=31
*	*^	*
8DD/) 8D/	16f#/LL	16A\ 16d\	.
*	*v	*v	*
.	16g/	.
8r	16g#/	.
.	16a/JJ	.
*	*^	*
4FFn/ (4BBn/	16ccn/LL	16d#\	.
*	*v	*v	*
.	16b/	>
.	16b-/	.
.	16a/JJ	.
*	*^	*
&(8EE/&) 8E/)	16g#/LL	16Bn\ 16e\	.
*	*v	*v	*
.	16a/	<
8r	16a#/	.
.	16bn/JJ	.
*	*^	*
(4FF/ 4BB/	16cc/LL	16d#\ 16an\	.
*	*v	*v	*
.	16b/	>
.	16b-/	.
.	16a/JJ	.
=32	=32	=32
*	*^	*
[1EE) 1E	8g#/	8Bn\ 8e\	.
.	8r	8r	.
.	16eee/LL	16gg#\ 16bb\	>
*	*v	*v	*
.	16fff/	.
.	16dddn/	.
.	16eee/JJ	.
*	*^	*
.	16ccc/LL	16ee\ 16aa\	.
*	*v	*v	*
.	16ddd/	.
.	16bb/	.
.	16ccc/JJ	.
*	*^	*
.	16aa/LL	16cc\ 16ee\	.
*	*v	*v	*
.	16bb/	.
.	16ggn/	.
.	16aa/JJ	.
=33	=33	=33
*	*^	*
1EE_ 1E	16ff/LL	16a\ 16cc\	.
*	*v	*v	*
.	16gg/	.
.	16ee/	.
.	[16ff/JJ	.
*	*^	*
.	16ddd/LL	16ff\] 16aa\	>
*	*v	*v	*
.	16eee/	.
.	16ccc/	.
.	16ddd/JJ	.
*	*^	*
.	16bb/LL	16dd\ 16ff\	.
*	*v	*v	*
.	16ccc/	.
.	16aa/	.
.	16bb/JJ	.
*	*^	*
.	16gg#/LL	16b\ 16dd\	.
*	*v	*v	*
.	16aa/	.
.	16ff/	.
.	16ggn/JJ	.
=34	=34	=34
*	*^	*
1EE_ 1E	16ee/LL	16g#\ 16b\	.
*	*v	*v	*
.	16ff/	.
.	16dd#/	.
.	[16ee/JJ	.
*	*^	*
.	16ccc/LL	16ee\] 16aa\	>
*	*v	*v	*
.	16dddn/	.
.	16bb/	.
.	16ccc/JJ	.
*	*^	*
.	16aa/LL	16cc\ 16ee\	.
*	*v	*v	*
.	16bb/	.
.	16ggn/	.
.	16aa/JJ	.
*	*^	*
.	16ff/LL	16a\ 16cc\	.
*	*v	*v	*
.	16gg/	.
.	16ee/	.
.	16ff/JJ	.
=35	=35	=35
*	*^	*
1EE] 1E	16dd/LL	16f\ 16a\	.
*	*v	*v	*
.	16ee/	.
.	16cc/	.
.	16dd/JJ	.
*	*^	*
.	16b/LL	16d\ 16f\	.
*	*v	*v	*
.	16cc/	.
.	16a/	.
.	16b/JJ	.
*	*^	*
.	16g#/LL	16B\ 16d\	.
*	*v	*v	*
.	16fn/	<
.	16d#/	.
.	16e/JJ	.
.	16f/LL	.
.	16f#/	.
.	16gn/	.
.	16g#/JJ	.
=36	=36	=36
*	*^	*
8AA'/	16a/LL	16c\ 16e\	.
*	*v	*v	*
.	16a#/	.
8r	16b/	.
.	16cc/JJ	.
*	*^	*
8E'\ 8A'\ 8cn'\	16cc#/LL	16e\ 16an\	.
*	*v	*v	*
.	16dd/	.
8r	16dd#/	.
.	16ee/JJ	.
*	*^	*
8AA'/	16ff/LL	16a\ 16ddn\	.
*	*v	*v	*
.	16ff#/	.
8r	16gg/	.
.	16gg#/JJ	.
*	*^	*
8F'\ 8A'\ 8d'\	16aa/LL	16dd\ 16ffn\	.
*	*v	*v	*
.	16aa#/	.
8r	16bb/	.
.	16cccn/JJ	.
=37	=37	=37
*	*^	*
8AA'/	16ccc#/LL	16ee\ 16aa\	.
*	*v	*v	*
.	16ddd/	.
8r	16ddd#/	.
.	16eee/JJ	.
*	*^	*
8E'\ 8A'\ 8cn'\	16fff/LL	16aa\ 16cccn\	.
*	*v	*v	*
.	16eee/	.
8r	16ddd#/	.
.	16dddn/JJ	.
*	*^	*
8A'\ 8cn'\ 8e'\	16ccc#/LL	16ee\ 16aa\	.
*	*v	*v	*
.	16cccn/	.
8r	16bb/	.
.	16bb-/JJ	.
*	*^	*
4r	16aa/LL	16ccn\ 16ee\	.
*	*v	*v	*
.	16gg#/	.
.	16bbn/	.
.	16aa/JJ	.
=38	=38	=38
*	*^	*
8EE'/	16gg#/LL	16b\ 16ee\	.
*	*v	*v	*
.	16ggn/	.
8r	16ff#/	.
.	16ffn/JJ	.
*	*^	*
8E'\ 8B'\ 8d'\	16ee/LL	16g#\ 16b\	.
*	*v	*v	*
.	16dd#/	.
8r	16ff/	.
.	16ee/JJ	.
*	*^	*
8AA'/	16dd#/LL	16a\ 16cc\	.
*	*v	*v	*
.	16ddn/	.
8r	16cc#/	.
.	16ccn/JJ	.
*	*^	*
8E'\ 8A'\ 8c'\	16b/LL	16e\ 16a\	.
*	*v	*v	*
.	16cc/	.
8r	16dd/	.
.	16cc/JJ	.
=39	=39	=39
*	*^	*
8E'\ 8B'\	16b/LL	16e\ 16g#\	.
*	*v	*v	*
.	16cc/	.
8r	16b/	.
.	16cc/JJ	.
*	*^	*
4F^\ [4B^\	16b/LL	16d#\ 16a\	.
*	*v	*v	*
.	16cc/	.
.	16b/	.
.	16cc/JJ	.
*	*^	*
8E\ 8B\]	16b/LL	16e\ 16g#\	.
*	*v	*v	*
.	16ee/	.
8r	16dd#/	.
.	16ddn/JJ	.
*	*^	*
4r	16cc#/LL	16dn\ 16g#\	.
*	*v	*v	*
.	16ccn/	.
.	16b/	.
.	16b-/JJ	.
=40	=40	=40
*	*^	*
8AA'/	16a/LL	16c\ 16e\	.
*	*v	*v	*
.	16a#/	.
8r	16b/	.
.	16cc/JJ	.
*	*^	*
8E'\ 8A'\ 8cn'\	16cc#/LL	16e\ 16an\	.
*	*v	*v	*
.	16dd/	.
8r	16dd#/	.
.	16ee/JJ	.
*	*^	*
8AA'/	16ff/LL	16a\ 16ddn\	.
*	*v	*v	*
.	16ff#/	.
8r	16gg/	.
.	16gg#/JJ	.
*	*^	*
8F'\ 8A'\ 8d'\	16aa/LL	16dd\ 16ffn\	.
*	*v	*v	*
.	16aa#/	.
8r	16bb/	.
.	16cccn/JJ	.
=41	=41	=41
*	*^	*
8AAA'/ 8AA'/	16ccc#/LL	16ee\ 16aa\	.
*	*v	*v	*
.	16ddd/	.
8r	16ddd#/	.
.	16eee/JJ	.
*	*^	*
8E'\ 8A'\ 8cn'\	16fff/LL	16aa\ 16cccn\	.
*	*v	*v	*
.	16eee/	.
8r	16ddd#/	.
.	16dddn/JJ	.
*	*^	*
8A'\ 8cn'\ 8e'\	16ccc#/LL	16ee\ 16aa\	.
*	*v	*v	*
.	16cccn/	.
8r	16bb/	.
.	16bb-/JJ	.
*	*^	*
4r	16aa/LL	16ccn\ 16ee\	.
*	*v	*v	*
.	16gg#/	.
.	16bbn/	.
.	16aa/JJ	.
=42	=42	=42
*	*^	*
8DD'/ 8D'/	16bb-/LL	16dd\ 16ff\	<
*	*v	*v	*
.	16bbn/	.
8r	16ccc/	.
.	16ccc#/JJ	.
*	*^	*
8D'\ 8F'\ 8B-'\ 8d'\	16dd/LL	16f\ 16b-\	.
*	*v	*v	*
.	16dd#/	.
8r	16ee/	.
.	16ff/JJ	.
*	*^	*
8EE'/ 8E'/	16ee/LL	16g#\ 16ddn\	.
*	*v	*v	*
.	16ff/	.
8r	16ff#/	.
.	16ggn/JJ	.
*	*^	*
8E'\ 8Bn'\ 8d'\	16gg#/LL	16dd\	.
*	*v	*v	*
.	16aa/	.
8r	16aa#/	.
.	16bbn/JJ	.
=43	=43	=43
*	*^	*
8FF'/ 8F'/	16aan/LL	16cc\	f
*	*v	*v	*
.	16gg#/	.
8r	16ggn/	.
.	16ff#/JJ	.
*	*^	*
8A'\ 8c'\ 8f'\	16ffn/LL	16a\ 16cc\	.
*	*v	*v	*
.	16ee/	.
8r	16ee-/	.
.	16dd/JJ	.
*	*^	*
8CCn'/ 8Cn'/	16ccc#/LL	16een\ 16aa\	.
*	*v	*v	*
.	16cccn/	.
8r	16bb/	.
.	16bb-/JJ	.
*	*^	*
8E'\ 8A'\ 8e'\	16aa/LL	16ccn\ 16ee\	.
*	*v	*v	*
.	16gg#/	.
8r	16ggn/	.
.	16ff#/JJ	.
=44	=44	=44
*	*^	*
8DD/	16ffn/LL	16b-\ 16dd\	.
*	*v	*v	*
.	16ee/	.
8r	16ee-/	.
.	16dd/JJ	.
*	*^	*
4D\ 4F\ 4B-\ (4d\	16cc#/LL	16f\ 16b-\	.
*	*v	*v	*
.	16dd/	.
.	16ff/	.
.	16dd/JJ	.
*	*^	*
4E\ 4A\ 4c\)	16bn/LL	16en\ 16a\	.
*	*v	*v	*
.	16ccn/	.
.	16een/	.
.	16cc/JJ	.
*	*^	*
4E\ (4Bn\	16a#/LL	16d\ 16g#\	.
*	*v	*v	*
.	16b/	.
.	16ee/	.
.	16b/JJ	.
=45	=45	=45
*	*^	*
8AA\ 8A\)	16an/LL	16c\	.
*	*v	*v	*
.	16a#/	.
8r	16b/	.
.	16cc/JJ	.
*	*^	*
(2FF^/ 2F^/	16cc#/LL	16d\ 16an\	.
*	*v	*v	*
.	16dd/	.
.	16dd#/	.
.	16ee/JJ	.
*	*^	*
.	16ff/LL	16a\ 16ddn\	.
*	*v	*v	*
.	16ff#/	.
.	16gg/	.
.	16gg#/JJ	.
*	*^	*
4EE/) 4E/	16aa/LL	16dd\ 16ee\	.
*	*v	*v	*
.	16aa#/	.
.	16bb/	.
.	16cccn/JJ	.
=46	=46	=46
*	*^	*
8AAA'/ 8AA'/	16aan/LL	16cc\ 16ee\	.
*	*v	*v	*
.	16aa#/	.
8r	16bb/	.
.	16ccc/JJ	.
*	*^	*
(2FFF/ 2FF/	16ccc#/LL	16dd\ 16aan\	.
*	*v	*v	*
.	16ddd/	.
.	16ddd#/	.
.	16eee/JJ	.
*	*^	*
.	16ff/LL	16a\ 16ddn\	.
*	*v	*v	*
.	16ff#/	.
.	16gg/	.
.	16gg#/JJ	.
*	*^	*
4EEE/) 4EE/	16aa/LL	16dd\ 16ee\	.
*	*v	*v	*
.	16aa#/	.
.	16bb/	.
.	16cccn/JJ	.
=47	=47	=47
*	*^	*
[1AAA 1AA	16aa/LL	16cc\ 16ee\	f
*	*v	*v	*
.	16gg#/	.
.	16ggn/	.
.	16ff#/JJ	.
*	*^	*
.	16ffn/LL	16a\ 16dd\	.
*	*v	*v	*
.	16ee/	.
.	16ee-/	.
.	16dd/JJ	.
*	*^	*
.	16ccc#/LL	16ff\ 16aa\	.
*	*v	*v	*
.	16cccn/	.
.	16bb/	.
.	16bb-/JJ	.
*	*^	*
.	16aa/LL	16dd\ 16ff\	.
*	*v	*v	*
.	16gg#/	.
.	16ggn/	.
.	16ff#/JJ	.
=48	=48	=48
*	*^	*
1AAA_ 1AA	16ffn/LL	16a\ 16dd\	>
*	*v	*v	*
.	16ee/	.
.	16ee-/	.
.	16dd/JJ	.
*	*^	*
.	16cc#/LL	16f\ 16a\	.
*	*v	*v	*
.	16ccn/	.
.	16b/	.
.	16b-/JJ	.
*	*^	*
.	16a/LL	16d\ 16f\	.
*	*v	*v	*
.	16g#/	.
.	16gn/	.
.	16f#/JJ	.
*	*^	*
.	16fn/LL	16A\ 16d\	.
*	*v	*v	*
.	16e/	.
.	16e-/	.
.	16d/JJ	.
=49	=49	=49
1AAA;] 1AA; 1E; 1A;	1c#	p
==	==	==
*-	*-	*-
!!!ENC: Craig Stuart Sapp
!!!END: 2004/12/24/
